svg/info-circle.svg

<?xml version="1.0" encoding="UTF-8"?>
<svg xmlns="http://www.w3.org/2000/svg" xmlns:xlink="http://www.w3.org/1999/xlink" width="32" height="32" viewBox="0 0 32 32">
<path fill-rule="nonzero" fill="rgb(0%, 0%, 0%)" fill-opacity="1" d="M 16 1.28125 C 7.882812 1.28125 1.28125 7.882812 1.28125 16 C 1.28125 24.117188 7.882812 30.71875 16 30.71875 C 24.117188 30.71875 30.71875 24.117188 30.71875 16 C 30.71875 7.882812 24.117188 1.28125 16 1.28125 M 14.976562 9.40625 C 14.976562 9.28125 15.039062 9.152344 15.230469 9.152344 L 16.703125 9.152344 C 16.832031 9.152344 16.960938 9.214844 16.960938 9.40625 L 16.960938 18.046875 C 16.960938 18.175781 16.894531 18.304688 16.703125 18.304688 L 15.230469 18.304688 C 15.105469 18.304688 14.976562 18.238281 14.976562 18.046875 Z M 17.023438 22.59375 C 17.023438 22.71875 16.960938 22.847656 16.769531 22.847656 L 15.230469 22.847656 C 15.105469 22.847656 14.976562 22.785156 14.976562 22.59375 L 14.976562 20.929688 C 14.976562 20.800781 15.039062 20.671875 15.230469 20.671875 L 16.769531 20.671875 C 16.894531 20.671875 17.023438 20.734375 17.023438 20.929688 Z M 17.023438 22.59375 "/>
</svg>

<svg role="img" viewBox="0 0 32 32" height="32" width="32" xmlns="http://www.w3.org/2000/svg"><path d="M16 1.281C7.883 1.281 1.281 7.883 1.281 16c0 8.117 6.602 14.719 14.719 14.719 8.117 0 14.719-6.602 14.719-14.719 0-8.117-6.602-14.719-14.719-14.719m-1.023 8.125c0-.125.062-.254.253-.254h1.473c.129 0 .258.063.258.254v8.64c0 .13-.066.259-.258.259H15.23c-.125 0-.253-.067-.253-.258Zm2.046 13.188c0 .125-.062.254-.253.254h-1.54c-.125 0-.253-.063-.253-.254V20.93c0-.13.062-.258.253-.258h1.54c.125 0 .253.062.253.258Zm0 0"/></svg>
